svg/Filled/golf_filled.svg

<svg viewBox="0 0 24 24" xmlns="http://www.w3.org/2000/svg" width="24" height="24"><path d="M11.1 18.01a.9.9 0 0 0 1.8 0v-4.04c1.68.1 3.21.5 4.4 1.14 1.36.71 2.5 1.86 2.5 3.36s-1.14 2.65-2.5 3.37A11.6 11.6 0 0 1 12 23c-2.02 0-3.9-.43-5.3-1.16-1.36-.72-2.5-1.87-2.5-3.37s1.14-2.65 2.5-3.36a11 11 0 0 1 4.4-1.14zm.46-16.8a.9.9 0 0 1 .9 0l.84.5.47.25a23 23 0 0 0 7.51 2.53l.1.02.16.03a1 1 0 0 1 .43 1.6l-.11.11-.9.73a13.5 13.5 0 0 1-8.05 2.99v4a14 14 0 0 0-1.8 0V1.88a.9.9 0 0 1 .45-.66"/></svg>

<svg viewBox="0 0 24 24" xmlns="http://www.w3.org/2000/svg" width="24" height="24"><path d="M11.1 18.01a.9.9 0 0 0 1.8 0v-4.04c1.68.1 3.21.5 4.4 1.14 1.36.71 2.5 1.86 2.5 3.36s-1.14 2.65-2.5 3.37A11.6 11.6 0 0 1 12 23c-2.02 0-3.9-.43-5.3-1.16-1.36-.72-2.5-1.87-2.5-3.37s1.14-2.65 2.5-3.36a11 11 0 0 1 4.4-1.14zM11.56 1.21A.9 .9 0 0 1 12.46 1.21L13.77 1.96A23 23 0 0 0 21.28 4.49L21.54 4.54A1 1 0 0 1 21.97 6.14L20.96 6.98A13.5 13.5 0 0 1 12.91 9.97L12.91 13.97A14 14 0 0 0 11.11 13.97L11.11 1.88A.9 .9 0 0 1 11.56 1.22"/></svg>
